img/flying/img-5.svg

<svg width="99" height="118" viewBox="0 0 99 118" fill="none" xmlns="http://www.w3.org/2000/svg">
<g clip-path="url(#clip0_243_4)">
<path d="M87.0569 34.1278C88.1849 39.7164 84.4064 45.4197 78.9936 46.3255C74.1206 47.1406 69.6242 44.1453 68.6388 39.4389C67.514 34.049 71.3721 28.884 77.3671 27.7713C82.5228 26.8151 86.0465 29.1278 87.0569 34.1278Z" fill="#FABFE2"/>
<g filter="url(#filter0_d_243_4)">
<path d="M32.0083 54.4113C32.0083 54.4113 24.3466 61.4999 19.8846 73.8357C15.4225 86.1715 17.8469 99.1007 24.5494 103.295C31.2703 107.478 35.2632 108.121 39.6425 107.287C44.0403 106.442 51.4126 104.914 58.3098 99.628C65.2429 94.3186 67.3346 91.6811 68.0876 90.8632C68.8404 90.0449 70.201 87.8594 68.9118 86.0666C67.6226 84.2738 65.4178 82.1195 64.6331 79.197C63.8483 76.2744 62.3705 68.0874 60.7017 64.6129C59.0512 61.127 55.7776 59.5333 50.9603 59.4356C46.1252 59.3501 43.3831 60.079 41.8424 58.3709C40.3017 56.6627 40.4073 54.623 37.9984 53.8317C35.6071 53.0282 33.7356 53.0445 32.0083 54.4113Z" fill="#EC0187"/>
<path d="M36.1165 109.765C36.1165 109.765 37.8723 111.713 42.8453 112.021C47.8357 112.318 52.5809 111.097 57.6695 109.053C62.7407 107.019 69.1662 102.206 72.4982 98.7577C75.8127 95.3214 77.2016 93.5706 74.8192 92.7028C72.419 91.8458 71.9459 93.4014 70.8861 94.3838C69.8259 95.3655 64.6032 100.983 60.315 103.47C56.0441 105.945 49.1988 109.161 44.6973 109.713C39.6712 110.335 37.3346 109.695 36.1165 109.765Z" fill="#EC0187"/>
</g>
<path d="M11.323 2.18966C13.5199 0.85741 16.3604 1.49793 17.668 3.62687L27.3589 19.3626C28.6652 21.4804 27.9445 24.2742 25.7476 25.6065C23.5508 26.9387 20.7101 26.287 19.4027 24.1693L9.71166 8.43364C8.40546 6.31587 9.12596 3.51071 11.323 2.18966Z" fill="#99DDE3"/>
</g>
<defs>
<filter id="filter0_d_243_4" x="-12.3818" y="33.2921" width="178.396" height="178.773" filterUnits="userSpaceOnUse" color-interpolation-filters="sRGB">
<feFlood flood-opacity="0" result="BackgroundImageFix"/>
<feColorMatrix in="SourceAlpha" type="matrix" values="0 0 0 0 0 0 0 0 0 0 0 0 0 0 0 0 0 0 127 0" result="hardAlpha"/>
<feOffset dx="30" dy="40"/>
<feGaussianBlur stdDeviation="30"/>
<feComposite in2="hardAlpha" operator="out"/>
<feColorMatrix type="matrix" values="0 0 0 0 0.882353 0 0 0 0 0.784314 0 0 0 0 0.827451 0 0 0 0.3 0"/>
<feBlend mode="normal" in2="BackgroundImageFix" result="effect1_dropShadow_243_4"/>
<feBlend mode="normal" in="SourceGraphic" in2="effect1_dropShadow_243_4" result="shape"/>
</filter>
<clipPath id="clip0_243_4">
<rect width="99" height="118" fill="white"/>
</clipPath>
</defs>
</svg>

<svg width="99" height="118" fill="none" xmlns="http://www.w3.org/2000/svg"><g clip-path="url(#clip0_243_4)"><path d="M87.057 34.128c1.128 5.588-2.65 11.292-8.063 12.197-4.873.816-9.37-2.18-10.355-6.886-1.125-5.39 2.733-10.555 8.728-11.668 5.156-.956 8.68 1.357 9.69 6.357z" fill="#FABFE2"/><g filter="url(#filter0_d_243_4)" fill="#EC0187"><path d="M32.008 54.411S24.347 61.5 19.885 73.836c-4.463 12.335-2.038 25.265 4.664 29.459 6.721 4.183 10.714 4.826 15.093 3.992 4.398-.845 11.77-2.373 18.668-7.659 6.933-5.31 9.025-7.947 9.778-8.765.752-.818 2.113-3.004.824-4.796-1.29-1.793-3.494-3.947-4.279-6.87-.785-2.923-2.262-11.11-3.931-14.584-1.65-3.486-4.924-5.08-9.742-5.177-4.835-.086-7.577.643-9.118-1.065-1.54-1.708-1.435-3.748-3.844-4.54-2.39-.803-4.262-.787-5.99.58z"/><path d="M36.117 109.765s1.755 1.948 6.728 2.256c4.99.297 9.736-.924 14.825-2.968 5.07-2.034 11.496-6.847 14.828-10.295 3.315-3.437 4.704-5.187 2.321-6.055-2.4-.857-2.873.698-3.933 1.68-1.06.983-6.283 6.6-10.571 9.087-4.27 2.475-11.116 5.691-15.618 6.243-5.026.622-7.362-.018-8.58.052z"/></g><path d="M11.323 2.19c2.197-1.333 5.037-.692 6.345 1.437l9.69 15.736c1.307 2.117.587 4.911-1.61 6.244-2.197 1.332-5.038.68-6.345-1.438L9.712 8.434C8.405 6.316 9.126 3.51 11.323 2.19z" fill="#99DDE3"/></g><defs><clipPath id="clip0_243_4"><path fill="#fff" d="M0 0h99v118H0z"/></clipPath><filter id="filter0_d_243_4" x="-12.382" y="33.292" width="178.396" height="178.773" filterUnits="userSpaceOnUse" color-interpolation-filters="sRGB"><feFlood flood-opacity="0" result="BackgroundImageFix"/><feColorMatrix in="SourceAlpha" values="0 0 0 0 0 0 0 0 0 0 0 0 0 0 0 0 0 0 127 0" result="hardAlpha"/><feOffset dx="30" dy="40"/><feGaussianBlur stdDeviation="30"/><feComposite in2="hardAlpha" operator="out"/><feColorMatrix values="0 0 0 0 0.882353 0 0 0 0 0.784314 0 0 0 0 0.827451 0 0 0 0.3 0"/><feBlend in2="BackgroundImageFix" result="effect1_dropShadow_243_4"/><feBlend in="SourceGraphic" in2="effect1_dropShadow_243_4" result="shape"/></filter></defs></svg>
